shield-sync-outline.svg

<svg fill="currentColor" viewBox="0 0 24 24"><path d="M12 21c-3.75-1-7-5.46-7-9.78V6.3l7-3.12 7 3.12v5.77a6.5 6.5 0 0 1 1.91.6A12 12 0 0 0 21 11V5l-9-4-9 4v6c0 5.55 3.84 10.74 9 12 .35-.09.7-.2 1-.32A6.3 6.3 0 0 1 12 21m6-6.5V13l-2.25 2.25L18 17.5V16a2.5 2.5 0 0 1 2.24 3.62l1.09 1.09A4 4 0 0 0 18 14.5m0 6.5a2.5 2.5 0 0 1-2.24-3.62l-1.09-1.09A4 4 0 0 0 18 22.5V24l2.25-2.25L18 19.5Z"/></svg>

<svg  viewBox="0 0 24 24" fill="currentColor"><path  d="M12 21C8.25 20 5 15.54 5 11.22V6.3L12 3.18L19 6.3V12.07A6.45 6.45 0 0 1 20.91 12.67A11.63 11.63 0 0 0 21 11V5L12 1L3 5V11C3 16.55 6.84 21.74 12 23C12.35 22.91 12.7 22.8 13 22.68A6.3 6.3 0 0 1 12 21M18 14.5V13L15.75 15.25L18 17.5V16A2.5 2.5 0 0 1 20.24 19.62L21.33 20.71A4 4 0 0 0 18 14.5M18 21A2.5 2.5 0 0 1 15.76 17.38L14.67 16.29A4 4 0 0 0 18 22.5V24L20.25 21.75L18 19.5Z"/></svg>
